static/media.svg

<svg width="306" height="185" viewBox="0 0 306 185" fill="none" xmlns="http://www.w3.org/2000/svg">
<path d="M43.4098 0H8.19537C4.02937 0 0.649414 3.45564 0.649414 7.71492V74.5776C0.649414 78.8369 4.02937 82.2925 8.19537 82.2925H43.4098C47.5758 82.2925 50.9558 78.8369 50.9558 74.5776V7.71492C50.9558 3.45564 47.5758 0 43.4098 0ZM25.8026 77.1492C23.02 77.1492 20.772 74.8508 20.772 72.0059C20.772 69.1611 23.02 66.8627 25.8026 66.8627C28.5852 66.8627 30.8332 69.1611 30.8332 72.0059C30.8332 74.8508 28.5852 77.1492 25.8026 77.1492ZM43.4098 59.7906C43.4098 60.8514 42.5609 61.7194 41.5233 61.7194H10.0819C9.04429 61.7194 8.19537 60.8514 8.19537 59.7906V9.64365C8.19537 8.58285 9.04429 7.71492 10.0819 7.71492H41.5233C42.5609 7.71492 43.4098 8.58285 43.4098 9.64365V59.7906Z" fill="#8B1C63"/>
<path d="M207.698 160.257H146.795C146.609 165.224 143.1 168.28 138.571 168.28H123.299C118.604 168.28 115.004 163.9 115.067 160.257H54.9749C52.7644 160.257 50.9558 162.062 50.9558 164.269V168.28C50.9558 177.105 58.1901 184.326 67.032 184.326H195.641C204.483 184.326 211.717 177.105 211.717 168.28V164.269C211.717 162.062 209.909 160.257 207.698 160.257ZM195.641 67.993C195.641 61.3741 190.216 55.9586 183.584 55.9586H79.0891C72.4577 55.9586 67.032 61.3741 67.032 67.993V152.234H195.641V67.993ZM179.565 136.188H83.1081V72.0045H179.565V136.188Z" fill="#72146B"/>
<path d="M295.596 0.00478576L221.783 0.0400518C216.226 0.0427068 211.719 4.56792 211.722 10.1428L211.764 97.6587C211.767 103.234 216.277 107.755 221.834 107.752L295.648 107.717C301.205 107.714 305.711 103.189 305.709 97.6138L305.667 10.098C305.664 4.52303 301.153 0.00213079 295.596 0.00478576ZM258.738 101.002C255.026 101.004 252.026 97.9971 252.024 94.2735C252.023 90.5498 255.02 87.5401 258.731 87.5383C262.443 87.5365 265.443 90.5434 265.445 94.2671C265.447 97.9907 262.449 101 258.738 101.002ZM295.634 78.2642C295.634 79.6526 294.503 80.7892 293.119 80.7899L224.338 80.8227C222.954 80.8234 221.821 79.6879 221.82 78.2994L221.789 12.6625C221.788 11.2741 222.92 10.1375 224.304 10.1368L293.085 10.104C294.469 10.1033 295.602 11.2388 295.602 12.6273L295.634 78.2642Z" fill="#BD385B"/>
<path d="M276.796 39.0358C277.118 38.7791 277.596 39.0192 277.596 39.425V56.3602C277.596 58.5548 275.822 60.3353 273.634 60.3353H239.297C237.11 60.3353 235.335 58.5548 235.335 56.3602V39.4333C235.335 39.0192 235.806 38.7873 236.136 39.0441C237.985 40.485 240.436 42.3152 248.855 48.4516C250.597 49.7269 253.536 52.4101 256.466 52.3935C259.413 52.4184 262.409 49.6772 264.084 48.4516C272.504 42.3152 274.947 40.4767 276.796 39.0358ZM256.466 49.7352C258.381 49.7683 261.138 47.3171 262.524 46.3068C273.478 38.3319 274.311 37.6362 276.837 35.6487C277.316 35.2761 277.596 34.6964 277.596 34.0836V32.5101C277.596 30.3156 275.822 28.5351 273.634 28.5351H239.297C237.11 28.5351 235.335 30.3156 235.335 32.5101V34.0836C235.335 34.6964 235.616 35.2678 236.095 35.6487C238.62 37.628 239.454 38.3319 250.407 46.3068C251.794 47.3171 254.551 49.7683 256.466 49.7352Z" fill="#72146B"/>
<ellipse cx="276.346" cy="29.006" rx="3.82766" ry="3.77165" fill="#FF0000"/>
<path d="M35.2706 32.76C35.4205 32.6404 35.6435 32.7523 35.6435 32.9413V40.832C35.6435 41.8545 34.8169 42.6841 33.7982 42.6841H17.8055C16.7867 42.6841 15.9602 41.8545 15.9602 40.832V32.9452C15.9602 32.7523 16.1793 32.6442 16.3331 32.7638C17.1943 33.4352 18.336 34.288 22.2573 37.1471C23.0685 37.7413 24.4371 38.9915 25.8018 38.9838C27.1743 38.9953 28.5698 37.7182 29.3502 37.1471C33.2715 34.288 34.4094 33.4314 35.2706 32.76ZM25.8018 37.7452C26.6937 37.7606 27.9778 36.6185 28.6236 36.1478C33.7251 32.432 34.1134 32.1079 35.2898 31.1818C35.5128 31.0082 35.6435 30.7381 35.6435 30.4526V29.7195C35.6435 28.697 34.8169 27.8674 33.7982 27.8674H17.8055C16.7867 27.8674 15.9602 28.697 15.9602 29.7195V30.4526C15.9602 30.7381 16.0909 31.0043 16.3139 31.1818C17.4903 32.104 17.8786 32.432 22.9801 36.1478C23.6259 36.6185 24.9099 37.7606 25.8018 37.7452Z" fill="#BD385B"/>
<ellipse cx="35.0984" cy="27.9406" rx="1.64043" ry="1.61138" fill="#FF0000"/>
<path d="M151.75 101.275C152.117 100.983 152.662 101.256 152.662 101.718V121.001C152.662 123.499 150.641 125.527 148.151 125.527H109.054C106.564 125.527 104.543 123.499 104.543 121.001V101.728C104.543 101.256 105.079 100.992 105.455 101.285C107.56 102.925 110.351 105.009 119.937 111.996C121.92 113.448 125.266 116.503 128.603 116.484C131.958 116.512 135.369 113.392 137.277 111.996C146.863 105.009 149.645 102.916 151.75 101.275ZM128.603 113.458C130.783 113.495 133.922 110.704 135.501 109.554C147.972 100.474 148.922 99.6817 151.797 97.4188C152.343 96.9945 152.662 96.3344 152.662 95.6367V93.8452C152.662 91.3465 150.641 89.3193 148.151 89.3193H109.054C106.564 89.3193 104.543 91.3465 104.543 93.8452V95.6367C104.543 96.3344 104.863 96.985 105.408 97.4188C108.283 99.6723 109.233 100.474 121.704 109.554C123.283 110.704 126.422 113.495 128.603 113.458Z" fill="#8B1C63"/>
<ellipse cx="151.568" cy="88.8731" rx="4.37447" ry="4.38639" fill="#FF0000"/>
</svg>

<svg width="306" height="185" fill="none" xmlns="http://www.w3.org/2000/svg"><path d="M43.41 0H8.195C4.03 0 .65 3.456.65 7.715v66.863c0 4.259 3.38 7.715 7.546 7.715H43.41c4.166 0 7.546-3.456 7.546-7.715V7.715c0-4.26-3.38-7.715-7.546-7.715zM25.803 77.15c-2.783 0-5.031-2.3-5.031-5.144 0-2.845 2.248-5.143 5.03-5.143 2.783 0 5.031 2.298 5.031 5.143 0 2.845-2.248 5.143-5.03 5.143zM43.41 59.79c0 1.061-.85 1.93-1.887 1.93H10.082c-1.038 0-1.887-.869-1.887-1.93V9.645c0-1.061.85-1.93 1.887-1.93h31.441c1.038 0 1.887.869 1.887 1.93V59.79z" fill="#8B1C63"/><path d="M207.698 160.257h-60.903c-.186 4.967-3.695 8.023-8.224 8.023h-15.272c-4.695 0-8.295-4.38-8.232-8.023H54.975c-2.21 0-4.02 1.805-4.02 4.012v4.011c0 8.825 7.235 16.046 16.077 16.046h128.609c8.842 0 16.076-7.221 16.076-16.046v-4.011c0-2.207-1.808-4.012-4.019-4.012zm-12.057-92.264c0-6.619-5.425-12.034-12.057-12.034H79.089c-6.631 0-12.057 5.415-12.057 12.034v84.241h128.609V67.993zm-16.076 68.195H83.108V72.005h96.457v64.183z" fill="#72146B"/><path d="M295.596.005L221.783.04c-5.557.003-10.064 4.528-10.061 10.103l.042 87.516c.003 5.575 4.513 10.096 10.07 10.093l73.814-.035c5.557-.003 10.063-4.528 10.061-10.103l-.042-87.516C305.664 4.523 301.153.002 295.596.005zm-36.858 100.997c-3.712.002-6.712-3.005-6.714-6.728-.001-3.724 2.996-6.734 6.707-6.736 3.712-.001 6.712 3.005 6.714 6.73.002 3.723-2.996 6.732-6.707 6.734zm36.896-22.738a2.528 2.528 0 01-2.515 2.526l-68.781.033a2.528 2.528 0 01-2.518-2.524l-.031-65.637a2.528 2.528 0 012.515-2.525l68.781-.033a2.527 2.527 0 012.517 2.523l.032 65.637z" fill="#BD385B"/><path d="M276.796 39.036c.322-.257.8-.017.8.389V56.36a3.97 3.97 0 01-3.962 3.975h-34.337a3.97 3.97 0 01-3.962-3.975V39.433c0-.414.471-.646.801-.389 1.849 1.441 4.3 3.271 12.719 9.408 1.742 1.275 4.681 3.958 7.611 3.942 2.947.024 5.943-2.717 7.618-3.942 8.42-6.137 10.863-7.975 12.712-9.416zm-20.33 10.7c1.915.032 4.672-2.419 6.058-3.43 10.954-7.974 11.787-8.67 14.313-10.657.479-.373.759-.953.759-1.565V32.51a3.97 3.97 0 00-3.962-3.975h-34.337a3.97 3.97 0 00-3.962 3.975v1.574c0 .612.281 1.184.76 1.565 2.525 1.979 3.359 2.683 14.312 10.658 1.387 1.01 4.144 3.461 6.059 3.428z" fill="#72146B"/><ellipse cx="276.346" cy="29.006" rx="3.828" ry="3.772" fill="red"/><path d="M35.27 32.76c.15-.12.373-.008.373.181v7.891a1.85 1.85 0 01-1.845 1.852H17.805a1.85 1.85 0 01-1.845-1.852v-7.887a.23.23 0 01.373-.181c.861.671 2.003 1.524 5.924 4.383.811.594 2.18 1.845 3.545 1.837 1.372.011 2.768-1.266 3.548-1.837 3.922-2.859 5.06-3.716 5.92-4.387zm-9.468 4.985c.892.016 2.176-1.127 2.822-1.597 5.101-3.716 5.49-4.04 6.666-4.966a.924.924 0 00.354-.73v-.733a1.85 1.85 0 00-1.846-1.852H17.805a1.85 1.85 0 00-1.845 1.852v.734c0 .285.13.551.354.729 1.176.922 1.565 1.25 6.666 4.966.646.47 1.93 1.613 2.822 1.597z" fill="#BD385B"/><ellipse cx="35.098" cy="27.941" rx="1.64" ry="1.611" fill="red"/><path d="M151.75 101.275c.367-.292.912-.019.912.443v19.283c0 2.498-2.021 4.526-4.511 4.526h-39.097c-2.49 0-4.511-2.028-4.511-4.526v-19.273c0-.472.536-.736.912-.443 2.105 1.64 4.896 3.724 14.482 10.711 1.983 1.452 5.329 4.507 8.666 4.488 3.355.028 6.766-3.092 8.674-4.488 9.586-6.987 12.368-9.08 14.473-10.721zm-23.147 12.183c2.18.037 5.319-2.754 6.898-3.904 12.471-9.08 13.421-9.872 16.296-12.135a2.257 2.257 0 00.865-1.782v-1.792c0-2.498-2.021-4.526-4.511-4.526h-39.097c-2.49 0-4.511 2.028-4.511 4.526v1.792c0 .697.32 1.348.865 1.782 2.875 2.253 3.825 3.055 16.296 12.135 1.579 1.15 4.718 3.941 6.899 3.904z" fill="#8B1C63"/><ellipse cx="151.568" cy="88.873" rx="4.374" ry="4.386" fill="red"/></svg>
